!!!OTL: Die &uuml;berm&uuml;tigen Gesellen (240), S. 516
!!!id: T0428
**kern
*clefG2
*k[]
*G:
{8d
=1
8g
8g
8g
8a
=2
4b
8b}
=3
{8b
=4
8cc
8b
8a
8g
=5
4a}
=6
{4dd
=7
8b
8b
8b
8b
=8
8b
8dd
4dd}
=9
{8ee
8dd
8cc
8b
=10
8a
8cc
8cc}
=11
{8dd
=12
8b
8b
16a
16a
8a
=13
4g}
=14
{4a
=15
8b
8dd
16dd
16dd
8cc
=16
4b}
8r
==
*-
!!!minrhy: 16
!!!meters: 2/4 ]  ZZ[6
!!!cut: Die &uuml;berm&uuml;tigen Gesellen (240), S. 516
!!!reg: Luxemburg
!!!trd: Singendes Volk, Esch-Alzette, 1937 posth.
!!!rhy1: X_  X_X_X_X_  X__X_   (x2)
!!!rhy2: X_  X_X_X_X_  X__
!!!key: T0428  16  G 2/4 ]  ZZ[6
!!!mod: SECHSTONSKALA DUR ?]  AMBITUS[9
!!!kad: 325413
!!!akz: 13_42_33_62_31_33_
!!!fot: 'a__b__bs'bs"c__d__
!!!for: 'a__aw_aw_aw_b__bv_
!!!fok: '/__\__V__Vd_\__^a_
!! PHRAS[VORWIEGEND AUFTAKTIG]
!!!fkt: Berufslied
!!!bem: Reuland, fff Ferdinand Freylinger, 1906
!! THILL; Mathias
!! PR[39] 2K[4] 2G[5] 3K[5] 3G[0] 4A[9] 4Ü[0] 5A[0] 6K[0] 6G[0]
!! 7K[0] 7G[0] 8A[0] MEHR[0] SI[23] ABS[56] SR[9] SP[14]
!! ST[8] 2k[14] 2g[21] 3k[0] 3g[0] 4d[2] 4ü[0] 5d[0] 6k[0] 6g[0]
!! 7k[0] 7g[0] 8d[0] mehr[0] si[38] dm[-15] sr[36] sp[2]
!! 1F[3] 2F[86] 3F[10] 4F[0] LF[0] 2P[0] 3P[0] 4P[0] TRI[0] DF[3] AB[59]
!! TF[0] U3K[0] U3[0] U4[0] U4Ü[0] U5[14] U6K[0] U6[7] U7K[0] U7[9]
!! N1[23] N2K[0] N2[23] N3K[0] N3[16] N4[5] N4Ü[0] N5[4] N6K[0] N6[0]
!!!n7k: 0] N7[0] O1[0] O2K[0] O2[0] O3K[0] O3[0] HÖ[0
!!!RNB: symbol: &uuml;  = u umlaut (UTF-8: Ã¼)
